; generated by PrusaSlicer 2.3.3+win64 on 2021-07-31 at 00:41:22 UTC

; 

; external perimeters extrusion width = 0.45mm
; perimeters extrusion width = 0.45mm
; infill extrusion width = 0.45mm
; solid infill extrusion width = 0.45mm
; top infill extrusion width = 0.40mm
; first layer extrusion width = 0.42mm

M73 P0 R92
M73 Q0 S93
M201 X1000 Y1000 Z200 E8000 ; sets maximum accelerations, mm/sec^2
M203 X200 Y200 Z12 E120 ; sets maximum feedrates, mm/sec
M204 P1250 R1250 T1250 ; sets acceleration (P, T) and retract acceleration (R), mm/sec^2
M205 X8.00 Y8.00 Z0.40 E4.50 ; sets the jerk limits, mm/sec
M205 S0 T0 ; sets the minimum extruding and travel feed rate, mm/sec
M107
;TYPE:Custom
M862.3 P "MK3SMMU2S" ; printer model check
M862.1 P0.4 ; nozzle diameter check
M115 U3.10.0 ; tell printer latest fw version
G90 ; use absolute coordinates
M83 ; extruder relative mode
M104 S215 ; set extruder temp
M140 S60 ; set bed temp
M190 S60 ; wait for bed temp
M109 S215 ; wait for extruder temp
G28 W ; home all without mesh bed level
G80 ; mesh bed leveling

; Send the filament type to the MMU2.0 unit.
; E stands for extruder number, F stands for filament type (0: default; 1:flex; 2: PVA)
M403 E0 F0
M403 E1 F0
M403 E2 F0
M403 E3 F0
M403 E4 F0


;go outside print area
G1 Y-3.0 F1000.0
M73 Q0 S92
G1 Z0.4 F1000.0
; select extruder
T4
; initial load
G1 X55.0 E29.0 F1073.0
G1 X5.0 E29.0 F1800.0
G1 X55.0 E8.0 F2000.0
G1 Z0.3 F1000.0
G92 E0.0
G1 X240.0 E25.0 F2200.0
G1 Y-2.0 F1000.0
G1 X55.0 E25 F1400.0
G1 Z0.20 F1000.0
G1 X5.0 E4.0 F1000.0
G92 E0.0


M221 S95
G92 E0.0

; Don't change E values below. Excessive value can damage the printer.
M907 E430 ; set extruder motor current
G21 ; set units to millimeters
G90 ; use absolute coordinates
M83 ; use relative distances for extrusion
T4
M900 K0.05 ; Filament gcode LA 1.5
M900 K30 ; Filament gcode LA 1.0
;LAYER_CHANGE
;Z:0.2
;HEIGHT:0.2
;BEFORE_LAYER_CHANGE
G92 E0.0
;0.2


M73 P0 R91
G1 E-0.80000 F2100.000
G1 Z0.400 F10800.000
;AFTER_LAYER_CHANGE
;0.2
G1 X156.478 Y53.931
G1 Z0.200
G1 E0.80000 F2100.000
M204 S1000
;TYPE:Skirt
;WIDTH:0.42
G1 F1200.000
G1 X156.698 Y53.380 E0.01858
G1 X157.065 Y52.882 E0.01941
G1 X157.549 Y52.496 E0.01941
G1 X158.120 Y52.246 E0.01953
G1 X158.732 Y52.153 E0.01941
G1 X220.782 Y52.153 E1.94555
G1 X221.681 Y52.331 E0.02872
G1 X222.445 Y52.835 E0.02872
G1 X222.963 Y53.592 E0.02872
G1 X223.155 Y54.487 E0.02872
G1 X223.156 Y164.538 E3.45056
G1 X223.079 Y165.129 E0.01870
G1 X222.859 Y165.680 E0.01858
G1 X222.489 Y166.181 E0.01953
G1 X222.002 Y166.568 E0.01953
G1 X221.430 Y166.816 E0.01953
G1 X220.814 Y166.907 E0.01953
G1 X158.767 Y166.907 E1.94543
G1 X158.179 Y166.830 E0.01858
G1 X157.629 Y166.611 E0.01858
G1 X157.125 Y166.238 E0.01965
G1 X156.736 Y165.747 E0.01965
G1 X156.489 Y165.171 E0.01965
G1 X156.402 Y164.550 E0.01965
G1 X156.401 Y54.522 E3.44984
M73 P1 R91
M73 Q1 S92
G1 X156.470 Y53.990 E0.01682
; printing object lidbox_fridgeproj.stl id:0 copy 0
;WIPE_START
G1 F8640.000
G1 X156.698 Y53.380 E-0.15031
G1 X157.065 Y52.882 E-0.14295
G1 X157.549 Y52.496 E-0.14295
G1 X158.120 Y52.246 E-0.14383
G1 X158.732 Y52.153 E-0.14295
G1 X158.892 Y52.153 E-0.03701
;WIPE_END
G1 E-0.04000 F2100.000
G1 Z0.600 F10800.000
G1 X181.700 Y97.623
G1 Z0.200
G1 E0.80000 F2100.000
;TYPE:Perimeter
G1 F1200.000
G1 X182.658 Y97.111 E0.03406
G1 X183.698 Y96.796 E0.03406
G1 X184.709 Y96.696 E0.03186
G1 X185.856 Y96.795 E0.03610
G1 X186.899 Y97.111 E0.03417
G1 X187.857 Y97.623 E0.03406
G1 X188.697 Y98.312 E0.03406
G1 X189.386 Y99.152 E0.03406
G1 X189.898 Y100.110 E0.03406
G1 X190.213 Y101.149 E0.03406
G1 X190.319 Y102.230 E0.03406
G1 X190.213 Y103.311 E0.03406
G1 X189.898 Y104.350 E0.03406
G1 X189.386 Y105.308 E0.03406
G1 X188.697 Y106.148 E0.03406
G1 X187.857 Y106.837 E0.03406
G1 X186.899 Y107.349 E0.03406
G1 X185.860 Y107.664 E0.03406
G1 X184.779 Y107.771 E0.03406
G1 X183.698 Y107.664 E0.03406
G1 X182.658 Y107.349 E0.03406
G1 X181.700 Y106.837 E0.03406
G1 X180.861 Y106.148 E0.03406
G1 X180.171 Y105.308 E0.03406
G1 X179.659 Y104.350 E0.03406
G1 X179.344 Y103.311 E0.03406
G1 X179.238 Y102.230 E0.03406
G1 X179.344 Y101.149 E0.03406
G1 X179.659 Y100.110 E0.03406
G1 X180.171 Y99.152 E0.03406
G1 X180.861 Y98.312 E0.03406
G1 X181.654 Y97.661 E0.03218
G1 X181.893 Y97.952 F10800.000
;TYPE:External perimeter
G1 F1200.000
G1 X182.803 Y97.461 E0.03243
G1 X183.771 Y97.167 E0.03173
G1 X184.711 Y97.075 E0.02961
G1 X185.784 Y97.167 E0.03377
G1 X186.754 Y97.461 E0.03177
G1 X187.646 Y97.938 E0.03173
G1 X188.429 Y98.580 E0.03173
G1 X189.071 Y99.362 E0.03173
G1 X189.548 Y100.255 E0.03173
G1 X189.841 Y101.223 E0.03173
G1 X189.941 Y102.230 E0.03173
G1 X189.841 Y103.237 E0.03173
G1 X189.548 Y104.205 E0.03173
G1 X189.071 Y105.098 E0.03173
G1 X188.429 Y105.880 E0.03173
G1 X187.646 Y106.522 E0.03173
G1 X186.754 Y106.999 E0.03173
G1 X185.786 Y107.293 E0.03173
G1 X184.779 Y107.392 E0.03173
G1 X183.771 Y107.293 E0.03173
G1 X182.803 Y106.999 E0.03173
G1 X181.911 Y106.522 E0.03173
G1 X181.128 Y105.880 E0.03173
G1 X180.487 Y105.098 E0.03173
G1 X180.009 Y104.205 E0.03173
G1 X179.716 Y103.237 E0.03173
G1 X179.617 Y102.230 E0.03173
G1 X179.716 Y101.223 E0.03173
G1 X180.009 Y100.255 E0.03173
G1 X180.487 Y99.362 E0.03173
G1 X181.128 Y98.580 E0.03173
G1 X181.847 Y97.991 E0.02913
G1 X181.866 Y97.553 F10800.000
;WIPE_START
G1 F8640.000
G1 X182.803 Y97.461 E-0.25245
G1 X183.771 Y97.167 E-0.23366
G1 X184.711 Y97.075 E-0.21805
G1 X184.952 Y97.095 E-0.05584
;WIPE_END
G1 E-0.04000 F2100.000
G1 Z0.600 F10800.000
G1 X175.898 Y100.110
G1 Z0.200
G1 E0.80000 F2100.000
;TYPE:Perimeter
G1 F1200.000
G1 X176.213 Y101.149 E0.03406
G1 X176.319 Y102.230 E0.03406
G1 X176.213 Y103.311 E0.03406
G1 X175.898 Y104.350 E0.03406
G1 X175.386 Y105.308 E0.03406
G1 X174.697 Y106.148 E0.03406
G1 X173.857 Y106.837 E0.03406
G1 X172.899 Y107.349 E0.03406
G1 X171.860 Y107.664 E0.03406
G1 X170.779 Y107.771 E0.03406
G1 X169.698 Y107.664 E0.03406
G1 X168.658 Y107.349 E0.03406
G1 X167.700 Y106.837 E0.03406
G1 X166.861 Y106.148 E0.03406
G1 X166.171 Y105.308 E0.03406
G1 X165.659 Y104.350 E0.03406
G1 X165.344 Y103.311 E0.03406
G1 X165.238 Y102.230 E0.03406
G1 X165.344 Y101.149 E0.03406
G1 X165.659 Y100.110 E0.03406
G1 X166.171 Y99.152 E0.03406
G1 X166.861 Y98.312 E0.03406
G1 X167.700 Y97.623 E0.03406
G1 X168.658 Y97.111 E0.03406
G1 X169.698 Y96.796 E0.03406
G1 X170.779 Y96.689 E0.03406
G1 X171.860 Y96.796 E0.03406
G1 X172.899 Y97.111 E0.03406
G1 X173.857 Y97.623 E0.03406
G1 X174.697 Y98.312 E0.03406
G1 X175.386 Y99.152 E0.03406
G1 X175.869 Y100.057 E0.03218
G1 X175.537 Y100.234 F10800.000
;TYPE:External perimeter
G1 F1200.000
G1 X175.841 Y101.223 E0.03243
G1 X175.941 Y102.230 E0.03173
G1 X175.841 Y103.237 E0.03173
G1 X175.548 Y104.205 E0.03173
G1 X175.071 Y105.098 E0.03173
G1 X174.429 Y105.880 E0.03173
G1 X173.646 Y106.522 E0.03173
G1 X172.754 Y106.999 E0.03173
G1 X171.786 Y107.293 E0.03173
M73 Q1 S91
G1 X170.779 Y107.392 E0.03173
G1 X169.771 Y107.293 E0.03173
G1 X168.803 Y106.999 E0.03173
G1 X167.911 Y106.522 E0.03173
G1 X167.128 Y105.880 E0.03173
G1 X166.487 Y105.098 E0.03173
G1 X166.009 Y104.205 E0.03173
G1 X165.716 Y103.237 E0.03173
G1 X165.617 Y102.230 E0.03173
G1 X165.716 Y101.223 E0.03173
G1 X166.009 Y100.255 E0.03173
G1 X166.487 Y99.362 E0.03173
G1 X167.128 Y98.580 E0.03173
G1 X167.911 Y97.938 E0.03173
G1 X168.803 Y97.461 E0.03173
G1 X169.771 Y97.167 E0.03173
G1 X170.779 Y97.068 E0.03173
G1 X171.786 Y97.167 E0.03173
G1 X172.754 Y97.461 E0.03173
G1 X173.646 Y97.938 E0.03173
G1 X174.429 Y98.580 E0.03173
G1 X175.071 Y99.362 E0.03173
G1 X175.509 Y100.182 E0.02913
G1 X175.934 Y100.285 F10800.000
;WIPE_START
G1 F8640.000
G1 X175.841 Y101.223 E-0.25245
G1 X175.941 Y102.230 E-0.23366
G1 X175.841 Y103.237 E-0.23365
G1 X175.791 Y103.404 E-0.04024
;WIPE_END
G1 E-0.04000 F2100.000
G1 Z0.600 F10800.000
G1 X161.491 Y110.993
G1 Z0.200
G1 E0.80000 F2100.000
;TYPE:Perimeter
G1 F1200.000
G1 X218.066 Y110.993 E1.77384
G1 X218.066 Y162.817 E1.62491
G1 X193.691 Y162.817 E0.76423
G1 X193.692 Y152.762 E0.31528
G1 X193.186 Y153.708 E0.03365
G1 X192.497 Y154.548 E0.03406
G1 X191.657 Y155.237 E0.03406
G1 X190.699 Y155.749 E0.03406
G1 X189.660 Y156.064 E0.03406
G1 X188.579 Y156.171 E0.03406
G1 X187.498 Y156.064 E0.03406
G1 X186.458 Y155.749 E0.03406
G1 X185.500 Y155.237 E0.03406
G1 X184.661 Y154.548 E0.03406
G1 X183.971 Y153.708 E0.03406
G1 X183.459 Y152.750 E0.03406
G1 X183.144 Y151.711 E0.03406
G1 X183.038 Y150.630 E0.03406
G1 X183.144 Y149.549 E0.03406
G1 X183.459 Y148.510 E0.03406
G1 X183.971 Y147.552 E0.03406
G1 X184.661 Y146.712 E0.03406
G1 X185.500 Y146.023 E0.03406
G1 X186.458 Y145.511 E0.03406
G1 X187.498 Y145.196 E0.03406
G1 X188.509 Y145.096 E0.03186
G1 X189.656 Y145.195 E0.03610
G1 X190.699 Y145.511 E0.03417
G1 X191.657 Y146.023 E0.03406
G1 X192.497 Y146.712 E0.03406
G1 X193.186 Y147.552 E0.03406
G1 X193.692 Y148.498 E0.03366
G1 X193.691 Y140.567 E0.24868
G1 X161.491 Y140.567 E1.00961
G1 X161.491 Y111.053 E0.92540
G1 X161.869 Y111.370 F10800.000
;TYPE:External perimeter
G1 F1200.000
G1 X217.689 Y111.370 E1.75020
G1 X217.689 Y162.440 E1.60126
G1 X194.069 Y162.440 E0.74059
G1 X194.069 Y152.139 E0.32297
G1 X194.092 Y150.658 E0.04646
G1 X194.069 Y149.176 E0.04646
G1 X194.069 Y140.190 E0.28175
G1 X161.869 Y140.190 E1.00961
G1 X161.869 Y111.430 E0.90175
G1 X161.758 Y110.986 F10800.000
;WIPE_START
G1 F8640.000
G1 X165.160 Y111.426 E-0.76000
;WIPE_END
G1 E-0.04000 F2100.000
G1 Z0.600 F10800.000
G1 X185.711 Y146.338
G1 Z0.200
G1 E0.80000 F2100.000
G1 F1200.000
G1 X186.603 Y145.861 E0.03173
G1 X187.571 Y145.567 E0.03173
G1 X188.511 Y145.475 E0.02961
G1 X189.584 Y145.567 E0.03377
G1 X190.554 Y145.861 E0.03177
G1 X191.446 Y146.338 E0.03173
G1 X192.229 Y146.980 E0.03173
G1 X192.871 Y147.762 E0.03173
G1 X193.348 Y148.655 E0.03173
G1 X193.641 Y149.626 E0.03180
G1 X193.716 Y150.630 E0.03158
G1 X193.641 Y151.634 E0.03158
G1 X193.348 Y152.605 E0.03180
G1 X192.871 Y153.498 E0.03173
G1 X192.229 Y154.280 E0.03173
G1 X191.446 Y154.922 E0.03173
G1 X190.554 Y155.399 E0.03173
G1 X189.586 Y155.693 E0.03173
G1 X188.579 Y155.792 E0.03173
G1 X187.571 Y155.693 E0.03173
G1 X186.603 Y155.399 E0.03173
G1 X185.711 Y154.922 E0.03173
G1 X184.928 Y154.280 E0.03173
G1 X184.287 Y153.498 E0.03173
G1 X183.809 Y152.605 E0.03173
G1 X183.516 Y151.637 E0.03173
G1 X183.417 Y150.630 E0.03173
G1 X183.516 Y149.623 E0.03173
G1 X183.809 Y148.655 E0.03173
G1 X184.287 Y147.762 E0.03173
G1 X184.928 Y146.980 E0.03173
G1 X185.664 Y146.376 E0.02985
G1 X185.685 Y145.939 F10800.000
;WIPE_START
G1 F8640.000
G1 X186.603 Y145.861 E-0.24726
G1 X187.571 Y145.567 E-0.23366
G1 X188.511 Y145.475 E-0.21805
G1 X188.775 Y145.497 E-0.06103
;WIPE_END
G1 E-0.04000 F2100.000
G1 Z0.600 F10800.000
G1 X197.698 Y107.664
G1 Z0.200
G1 E0.80000 F2100.000
;TYPE:Perimeter
G1 F1200.000
G1 X196.658 Y107.349 E0.03406
G1 X195.700 Y106.837 E0.03406
G1 X194.861 Y106.148 E0.03406
G1 X194.171 Y105.308 E0.03406
G1 X193.659 Y104.350 E0.03406
G1 X193.344 Y103.311 E0.03406
G1 X193.238 Y102.230 E0.03406
G1 X193.344 Y101.149 E0.03406
G1 X193.659 Y100.110 E0.03406
G1 X194.171 Y99.152 E0.03406
G1 X194.861 Y98.312 E0.03406
G1 X195.700 Y97.623 E0.03406
G1 X196.658 Y97.111 E0.03406
G1 X197.698 Y96.796 E0.03406
G1 X198.709 Y96.696 E0.03186
G1 X199.856 Y96.795 E0.03610
G1 X200.899 Y97.111 E0.03417
G1 X201.857 Y97.623 E0.03406
G1 X202.697 Y98.312 E0.03406
G1 X203.386 Y99.152 E0.03406
G1 X203.898 Y100.110 E0.03406
G1 X204.213 Y101.149 E0.03406
G1 X204.319 Y102.230 E0.03406
G1 X204.213 Y103.311 E0.03406
G1 X203.898 Y104.350 E0.03406
G1 X203.386 Y105.308 E0.03406
G1 X202.697 Y106.148 E0.03406
G1 X201.857 Y106.837 E0.03406
G1 X200.899 Y107.349 E0.03406
G1 X199.860 Y107.664 E0.03406
G1 X198.779 Y107.771 E0.03406
G1 X197.757 Y107.670 E0.03218
G1 X197.794 Y107.295 F10800.000
;TYPE:External perimeter
G1 F1200.000
G1 X196.803 Y106.999 E0.03243
G1 X195.911 Y106.522 E0.03173
G1 X195.128 Y105.880 E0.03173
G1 X194.487 Y105.098 E0.03173
G1 X194.009 Y104.205 E0.03173
G1 X193.716 Y103.237 E0.03173
G1 X193.617 Y102.230 E0.03173
G1 X193.716 Y101.223 E0.03173
G1 X194.009 Y100.255 E0.03173
G1 X194.487 Y99.362 E0.03173
G1 X195.128 Y98.580 E0.03173
G1 X195.911 Y97.938 E0.03173
G1 X196.803 Y97.461 E0.03173
G1 X197.771 Y97.167 E0.03173
G1 X198.711 Y97.075 E0.02961
G1 X199.784 Y97.167 E0.03377
G1 X200.754 Y97.461 E0.03177
G1 X201.646 Y97.938 E0.03173
G1 X202.429 Y98.580 E0.03173
G1 X203.071 Y99.362 E0.03173
G1 X203.548 Y100.255 E0.03173
G1 X203.841 Y101.223 E0.03173
G1 X203.941 Y102.230 E0.03173
G1 X203.841 Y103.237 E0.03173
G1 X203.548 Y104.205 E0.03173
G1 X203.071 Y105.098 E0.03173
G1 X202.429 Y105.880 E0.03173
G1 X201.646 Y106.522 E0.03173
G1 X200.754 Y106.999 E0.03173
G1 X199.786 Y107.293 E0.03173
G1 X198.779 Y107.392 E0.03173
G1 X197.854 Y107.301 E0.02913
G1 X197.531 Y107.597 F10800.000
;WIPE_START
G1 F8640.000
G1 X196.803 Y106.999 E-0.25245
M73 P1 R90
G1 X195.911 Y106.522 E-0.23366
G1 X195.128 Y105.880 E-0.23366
G1 X195.018 Y105.745 E-0.04024
;WIPE_END
G1 E-0.04000 F2100.000
G1 Z0.600 F10800.000
G1 X205.241 Y80.067
G1 Z0.200
G1 E0.80000 F2100.000
;TYPE:Perimeter
G1 F1200.000
G1 X205.241 Y72.943 E0.22337
G1 X217.816 Y72.943 E0.39425
G1 X217.816 Y80.067 E0.22337
G1 X205.301 Y80.067 E0.39237
G1 X205.619 Y79.690 F10800.000
;TYPE:External perimeter
G1 F1200.000
G1 X205.619 Y73.320 E0.19973
G1 X217.439 Y73.320 E0.37061
G1 X217.439 Y79.690 E0.19973
G1 X205.679 Y79.690 E0.36873
G1 X205.224 Y79.756 F10800.000
;WIPE_START
G1 F8640.000
G1 X205.648 Y76.399 E-0.76000
;WIPE_END
G1 E-0.04000 F2100.000
G1 Z0.600 F10800.000
G1 X196.769 Y80.330
G1 Z0.200
G1 E0.80000 F2100.000
;TYPE:Perimeter
G1 F1200.000
G1 X196.663 Y81.411 E0.03406
G1 X196.348 Y82.450 E0.03406
G1 X195.836 Y83.408 E0.03406
G1 X195.147 Y84.248 E0.03406
G1 X194.307 Y84.937 E0.03406
G1 X193.349 Y85.449 E0.03406
G1 X192.310 Y85.764 E0.03406
G1 X191.229 Y85.871 E0.03406
G1 X190.148 Y85.764 E0.03406
G1 X189.108 Y85.449 E0.03406
G1 X188.150 Y84.937 E0.03406
G1 X187.311 Y84.248 E0.03406
G1 X186.621 Y83.408 E0.03406
G1 X186.109 Y82.450 E0.03406
G1 X185.794 Y81.411 E0.03406
G1 X185.688 Y80.330 E0.03406
G1 X185.794 Y79.249 E0.03406
G1 X186.109 Y78.210 E0.03406
G1 X186.621 Y77.252 E0.03406
G1 X187.311 Y76.412 E0.03406
G1 X188.150 Y75.723 E0.03406
G1 X189.108 Y75.211 E0.03406
G1 X190.148 Y74.896 E0.03406
G1 X191.159 Y74.796 E0.03186
G1 X192.306 Y74.895 E0.03610
G1 X193.349 Y75.211 E0.03417
G1 X194.307 Y75.723 E0.03406
G1 X195.147 Y76.412 E0.03406
G1 X195.836 Y77.252 E0.03406
G1 X196.348 Y78.210 E0.03406
G1 X196.663 Y79.249 E0.03406
G1 X196.764 Y80.270 E0.03218
G1 X196.388 Y80.307 F10800.000
;TYPE:External perimeter
G1 F1200.000
G1 X196.291 Y81.337 E0.03243
G1 X195.998 Y82.305 E0.03173
G1 X195.521 Y83.198 E0.03173
G1 X194.879 Y83.980 E0.03173
G1 X194.096 Y84.622 E0.03173
G1 X193.204 Y85.099 E0.03173
G1 X192.236 Y85.393 E0.03173
G1 X191.229 Y85.492 E0.03173
G1 X190.221 Y85.393 E0.03173
G1 X189.253 Y85.099 E0.03173
G1 X188.361 Y84.622 E0.03173
G1 X187.578 Y83.980 E0.03173
G1 X186.937 Y83.198 E0.03173
G1 X186.459 Y82.305 E0.03173
G1 X186.166 Y81.337 E0.03173
G1 X186.067 Y80.330 E0.03173
G1 X186.166 Y79.323 E0.03173
G1 X186.459 Y78.355 E0.03173
G1 X186.937 Y77.462 E0.03173
G1 X187.578 Y76.680 E0.03173
G1 X188.361 Y76.038 E0.03173
G1 X189.253 Y75.561 E0.03173
G1 X190.221 Y75.267 E0.03173
G1 X191.161 Y75.175 E0.02961
G1 X192.234 Y75.267 E0.03377
G1 X193.204 Y75.561 E0.03177
G1 X194.096 Y76.038 E0.03173
G1 X194.879 Y76.680 E0.03173
G1 X195.521 Y77.462 E0.03173
G1 X195.998 Y78.355 E0.03173
G1 X196.291 Y79.323 E0.03173
G1 X196.382 Y80.248 E0.02913
G1 X196.735 Y80.506 F10800.000
;WIPE_START
G1 F8640.000
G1 X196.291 Y81.337 E-0.25245
G1 X195.998 Y82.305 E-0.23366
G1 X195.521 Y83.198 E-0.23366
G1 X195.410 Y83.333 E-0.04024
;WIPE_END
G1 E-0.04000 F2100.000
G1 Z0.600 F10800.000
G1 X182.769 Y80.330
G1 Z0.200
G1 E0.80000 F2100.000
;TYPE:Perimeter
G1 F1200.000
G1 X182.663 Y81.411 E0.03406
G1 X182.348 Y82.450 E0.03406
G1 X181.836 Y83.408 E0.03406
G1 X181.147 Y84.248 E0.03406
G1 X180.307 Y84.937 E0.03406
G1 X179.349 Y85.449 E0.03406
G1 X178.310 Y85.764 E0.03406
